icon-themes/elementary_svg/cmd/32/inserthyperlink.svg

<svg height="32" width="32" xmlns="http://www.w3.org/2000/svg" xmlns:xlink="http://www.w3.org/1999/xlink"><linearGradient id="a"><stop offset="0"/><stop offset="1" stop-color="#fff"/></linearGradient><radialGradient id="b" cx="65.325226" cy="48.709068" gradientTransform="matrix(0 .68597915 -.7462606 0 60.288383 -27.737493)" gradientUnits="userSpaceOnUse" r="31.000002"><stop offset="0" stop-color="#cdf87e"/><stop offset=".26238" stop-color="#a2e34f"/><stop offset=".66093999" stop-color="#68b723"/><stop offset="1" stop-color="#1d7e0d"/></radialGradient><linearGradient id="c" gradientTransform="matrix(.42269325 0 0 .38513145 14.544843 15.082967)" gradientUnits="userSpaceOnUse" x1="24.138529" x2="24.138529" y1="10.170639" y2="36.135799"><stop offset="0" stop-color="#fff"/><stop offset="0" stop-color="#fff" stop-opacity=".235294"/><stop offset="1" stop-color="#fff" stop-opacity=".156863"/><stop offset="1" stop-color="#fff" stop-opacity=".392157"/></linearGradient><linearGradient id="d" gradientTransform="matrix(.38833389 0 0 .41842122 15.301011 14.318351)" gradientUnits="userSpaceOnUse" x1="24.138529" x2="24.138529" y1="20.748587" y2="25.52846"><stop offset="0" stop-color="#fff"/><stop offset=".00000003" stop-color="#fff" stop-opacity=".235294"/><stop offset="1" stop-color="#fff" stop-opacity=".156863"/><stop offset="1" stop-color="#fff" stop-opacity=".392157"/></linearGradient><linearGradient id="e" gradientUnits="userSpaceOnUse" x1="72.5" x2="86" xlink:href="#a" y1="2.75" y2="2.75"/><linearGradient id="f" gradientUnits="userSpaceOnUse" x1="91" x2="104.5" xlink:href="#a" y1="2.75" y2="2.75"/><linearGradient id="g" gradientUnits="userSpaceOnUse" x1="83" x2="91" xlink:href="#a" y1="2.75" y2="2.75"/><radialGradient id="h" cx="99.157013" cy="186.17059" gradientTransform="matrix(.0876227 0 0 .05575992 -.688406 18.118812)" gradientUnits="userSpaceOnUse" r="62.769119"><stop offset="0" stop-color="#3d3d3d"/><stop offset=".5" stop-color="#686868" stop-opacity=".498039"/><stop offset="1" stop-color="#686868" stop-opacity="0"/></radialGradient><path d="m13.5 28.499666a5.5 3.4999999 0 1 1 -11 0 5.5 3.4999999 0 1 1 11 0z" fill="url(#h)"/><g transform="matrix(.70710678 -.70710678 .70710678 .70710678 -48.523494 76.634407)"><path d="m76-2c-1.939 0-3.5 1.56100002-3.5 3.5v2.5c0 1.939 1.561 3.5 3.5 3.5h6.5c1.939 0 3.5-1.561 3.5-3.5v-2.5c0-1.93899998-1.561-3.5-3.5-3.5zm.25 2.5h6c.6925 0 1.25.5575 1.25 1.25v2c0 .6925-.5575 1.25-1.25 1.25h-6c-.6925 0-1.25-.5575-1.25-1.25v-2c0-.6925.5575-1.25 1.25-1.25z" fill="#d4d4d4" stroke="#000" stroke-linecap="round" stroke-linejoin="bevel" stroke-opacity=".427451"/><path d="m94.5-2c-1.939 0-3.5 1.56100002-3.5 3.5v2.5c0 1.939 1.561 3.5 3.5 3.5h6.5c1.939 0 3.5-1.561 3.5-3.5v-2.5c0-1.93899998-1.561-3.5-3.5-3.5zm.25 2.5h6c.6925 0 1.25.5575 1.25 1.25v2c0 .6925-.5575 1.25-1.25 1.25h-6c-.6925 0-1.25-.5575-1.25-1.25v-2c0-.6925.5575-1.25 1.25-1.25z" fill="#d4d4d4" stroke="#000" stroke-linecap="round" stroke-linejoin="bevel" stroke-opacity=".427451"/><path d="m76-2c-1.939 0-3.5 1.56100002-3.5 3.5v2.5c0 1.939 1.561 3.5 3.5 3.5h6.5c1.939 0 3.5-1.561 3.5-3.5v-2.5c0-1.93899998-1.561-3.5-3.5-3.5zm.25 2.5h6c.6925 0 1.25.5575 1.25 1.25v2c0 .6925-.5575 1.25-1.25 1.25h-6c-.6925 0-1.25-.5575-1.25-1.25v-2c0-.6925.5575-1.25 1.25-1.25z" fill="url(#e)" opacity=".2"/><path d="m94.5-2c-1.939 0-3.5 1.56100002-3.5 3.5v2.5c0 1.939 1.561 3.5 3.5 3.5h6.5c1.939 0 3.5-1.561 3.5-3.5v-2.5c0-1.93899998-1.561-3.5-3.5-3.5zm.25 2.5h6c.6925 0 1.25.5575 1.25 1.25v2c0 .6925-.5575 1.25-1.25 1.25h-6c-.6925 0-1.25-.5575-1.25-1.25v-2c0-.6925.5575-1.25 1.25-1.25z" fill="url(#f)" opacity=".2"/><g stroke-linecap="round"><g fill="none" stroke="#fff"><path d="m94.5-1h6.5c1.385 0 2.5 1.115 2.5 2.5v2.5" opacity=".4" stroke-linejoin="round"/><path d="m100.75 6h-6c-1.2465 0-2.25-1.0035-2.25-2.25" opacity=".4" stroke-linejoin="bevel"/><path d="m82.5 6.5h-6.5c-1.385 0-2.5-1.115-2.5-2.5v-2.5" opacity=".4" stroke-linejoin="round"/><path d="m76.25-.5h6c1.2465 0 2.25 1.0035 2.25 2.25" opacity=".4" stroke-linejoin="bevel"/></g><rect fill="#d4d4d4" height="2.5" rx="1.5" stroke="#000" stroke-linejoin="bevel" stroke-opacity=".427451" width="13" x="82" y="1.5"/></g><rect fill="url(#g)" height="2.5" opacity=".2" rx="1.5" width="13" x="82" y="1.5"/><path d="m83 2.75c0-.1385.669-.25 1.5-.25h8c.831 0 1.5.1115 1.5.25" fill="none" opacity=".4" stroke="#fff" stroke-linecap="round" stroke-linejoin="bevel"/></g><g transform="translate(0 .006868)"><path d="m21.5 21.5v-4.021022h5v4.021022h4.007287v5h-4.007287v4.007286h-5v-4.007286h-4.007286v-5z" fill="url(#b)"/><g fill="none"><path d="m22.5 23.003028v-4.503028h3v4.496972m0 2.003028v4.5h-3v-4.5" opacity=".5" stroke="url(#c)"/><path d="m26 22.512298 3.499869-.01086v2.987703l-3.499869.01086m-4 0-3.500131-.01086v-2.987703l3.500131.01086" opacity=".5" stroke="url(#d)"/><path d="m21.5 21.5v-4.021022h5v4.021022h4.007287v5h-4.007287v4.007286h-5v-4.007286h-4.007286v-5z" opacity=".5" stroke="#0f5a00" stroke-linecap="round" stroke-linejoin="round"/></g></g></svg>

<?xml version="1.0" encoding="UTF-8" standalone="no"?>
<svg
   xmlns:dc="http://purl.org/dc/elements/1.1/"
   xmlns:cc="http://creativecommons.org/ns#"
   xmlns:rdf="http://www.w3.org/1999/02/22-rdf-syntax-ns#"
   xmlns:svg="http://www.w3.org/2000/svg"
   xmlns="http://www.w3.org/2000/svg"
   xmlns:xlink="http://www.w3.org/1999/xlink"
   xmlns:sodipodi="http://sodipodi.sourceforge.net/DTD/sodipodi-0.dtd"
   xmlns:inkscape="http://www.inkscape.org/namespaces/inkscape"
   version="1.1"
   width="32"
   height="32"
   id="svg3946"
   sodipodi:docname="inserthyperlink.svg"
   inkscape:version="0.92.3 (unknown)"
   inkscape:export-filename="/home/rizmut/Dokumen/Rizmut/Github/libreoffice-style-elementary/images_elementary/cmd/32/inserthyperlink.png"
   inkscape:export-xdpi="96"
   inkscape:export-ydpi="96">
  <sodipodi:namedview
     pagecolor="#ffffff"
     bordercolor="#666666"
     borderopacity="1"
     objecttolerance="10"
     gridtolerance="10"
     guidetolerance="10"
     inkscape:pageopacity="0"
     inkscape:pageshadow="2"
     inkscape:window-width="1366"
     inkscape:window-height="768"
     id="namedview52"
     showgrid="false"
     inkscape:zoom="7.375"
     inkscape:cx="-3.0508475"
     inkscape:cy="16"
     inkscape:window-x="0"
     inkscape:window-y="0"
     inkscape:window-maximized="0"
     inkscape:current-layer="svg3946" />
  <defs
     id="defs3948">
    <linearGradient
       id="linearGradient1893">
      <stop
         style="stop-color:#000000;stop-opacity:1"
         offset="0"
         id="stop1889" />
      <stop
         style="stop-color:#ffffff;stop-opacity:1"
         offset="1"
         id="stop1891" />
    </linearGradient>
    <linearGradient
       id="linearGradient3242-7-3-8-0-4-58-06">
      <stop
         offset="0"
         style="stop-color:#cdf87e;stop-opacity:1"
         id="stop3244-5-8-5-6-4-3-8" />
      <stop
         offset="0.26238"
         style="stop-color:#a2e34f;stop-opacity:1"
         id="stop3246-9-5-1-5-3-0-7" />
      <stop
         offset="0.66093999"
         style="stop-color:#68b723;stop-opacity:1"
         id="stop3248-7-2-0-7-5-35-9" />
      <stop
         offset="1"
         style="stop-color:#1d7e0d;stop-opacity:1"
         id="stop3250-8-2-8-5-6-40-4" />
    </linearGradient>
    <linearGradient
       id="linearGradient4154">
      <stop
         id="stop4156"
         style="stop-color:#ffffff;stop-opacity:1"
         offset="0" />
      <stop
         id="stop4158"
         style="stop-color:#ffffff;stop-opacity:0.23529412"
         offset="0" />
      <stop
         id="stop4160"
         style="stop-color:#ffffff;stop-opacity:0.15686275"
         offset="1" />
      <stop
         id="stop4162"
         style="stop-color:#ffffff;stop-opacity:0.39215687"
         offset="1" />
    </linearGradient>
    <radialGradient
       cx="65.325226"
       cy="48.709068"
       r="31.000002"
       fx="65.325226"
       fy="48.709068"
       id="radialGradient3343-7"
       xlink:href="#linearGradient3242-7-3-8-0-4-58-06"
       gradientUnits="userSpaceOnUse"
       gradientTransform="matrix(0,0.68597915,-0.7462606,0,60.288383,-27.737493)" />
    <linearGradient
       x1="24.138529"
       y1="10.170639"
       x2="24.138529"
       y2="36.135799"
       id="linearGradient3030-2"
       xlink:href="#linearGradient4154"
       gradientUnits="userSpaceOnUse"
       gradientTransform="matrix(0.42269325,0,0,0.38513145,14.544843,15.082967)" />
    <linearGradient
       x1="24.138529"
       y1="20.748587"
       x2="24.138529"
       y2="25.52846"
       id="linearGradient3030-1-1"
       xlink:href="#linearGradient4333-8"
       gradientUnits="userSpaceOnUse"
       gradientTransform="matrix(0.38833389,0,0,0.41842122,15.301011,14.318351)" />
    <linearGradient
       id="linearGradient4333-8">
      <stop
         offset="0"
         style="stop-color:#ffffff;stop-opacity:1"
         id="stop4335-7" />
      <stop
         offset="0.00000003"
         style="stop-color:#ffffff;stop-opacity:0.23529412"
         id="stop4337-9" />
      <stop
         offset="1"
         style="stop-color:#ffffff;stop-opacity:0.15686275"
         id="stop4339-2" />
      <stop
         offset="1"
         style="stop-color:#ffffff;stop-opacity:0.39215687"
         id="stop4341-0" />
    </linearGradient>
    <linearGradient
       xlink:href="#linearGradient1893"
       id="linearGradient1895"
       x1="72.5"
       y1="2.75"
       x2="86"
       y2="2.75"
       gradientUnits="userSpaceOnUse" />
    <linearGradient
       xlink:href="#linearGradient1893"
       id="linearGradient1899"
       gradientUnits="userSpaceOnUse"
       x1="72.5"
       y1="2.75"
       x2="86"
       y2="2.75"
       gradientTransform="translate(18.5)" />
    <linearGradient
       xlink:href="#linearGradient1893"
       id="linearGradient1909"
       x1="83"
       y1="2.7499995"
       x2="91"
       y2="2.7499995"
       gradientUnits="userSpaceOnUse" />
    <radialGradient
       gradientTransform="matrix(0.0876227,0,0,0.05575992,-0.68840565,18.118812)"
       gradientUnits="userSpaceOnUse"
       xlink:href="#linearGradient3820-7-2-2"
       id="radialGradient4277"
       fy="186.17059"
       fx="99.157013"
       r="62.769119"
       cy="186.17059"
       cx="99.157013" />
    <linearGradient
       id="linearGradient3820-7-2-2">
      <stop
         offset="0"
         style="stop-color:#3d3d3d;stop-opacity:1"
         id="stop3822-2-6-36" />
      <stop
         offset="0.5"
         style="stop-color:#686868;stop-opacity:0.49803922"
         id="stop3864-8-7-6" />
      <stop
         offset="1"
         style="stop-color:#686868;stop-opacity:0"
         id="stop3824-1-2-4" />
    </linearGradient>
  </defs>
  <metadata
     id="metadata3951">
    <rdf:RDF>
      <cc:Work
         rdf:about="">
        <dc:format>image/svg+xml</dc:format>
        <dc:type
           rdf:resource="http://purl.org/dc/dcmitype/StillImage" />
        <dc:title></dc:title>
      </cc:Work>
    </rdf:RDF>
  </metadata>
  <path
     style="fill:url(#radialGradient4277);fill-opacity:1;stroke:none;stroke-width:1"
     id="path3818-0-2"
     d="m 13.5,28.499666 a 5.5,3.4999999 0 1 1 -11,0 5.5,3.4999999 0 1 1 11,0 z" />
  <g
     id="g1939"
     transform="rotate(-45,68.244165,96.890242)">
    <path
       id="rect1871"
       d="m 76,-2 c -1.939,0 -3.5,1.56100002 -3.5,3.5 V 4 c 0,1.939 1.561,3.5 3.5,3.5 h 6.5 C 84.439,7.5 86,5.939 86,4 V 1.5 C 86,-0.43899998 84.439,-2 82.5,-2 Z m 0.25,2.5 h 6 c 0.6925,0 1.25,0.5575 1.25,1.25 v 2 C 83.5,4.4425 82.9425,5 82.25,5 h -6 C 75.5575,5 75,4.4425 75,3.75 v -2 C 75,1.0575 75.5575,0.5 76.25,0.5 Z"
       style="opacity:1;fill:#d4d4d4;fill-opacity:1;stroke:#000000;stroke-width:1;stroke-linecap:round;stroke-linejoin:bevel;stroke-opacity:0.42745098" />
    <path
       id="rect1875"
       d="M 94.5,-2 C 92.561,-2 91,-0.43899998 91,1.5 V 4 c 0,1.939 1.561,3.5 3.5,3.5 h 6.5 c 1.939,0 3.5,-1.561 3.5,-3.5 V 1.5 c 0,-1.93899998 -1.561,-3.5 -3.5,-3.5 z m 0.25,2.5 h 6 c 0.6925,0 1.25,0.5575 1.25,1.25 v 2 C 102,4.4425 101.4425,5 100.75,5 h -6 C 94.0575,5 93.5,4.4425 93.5,3.75 v -2 c 0,-0.6925 0.5575,-1.25 1.25,-1.25 z"
       style="opacity:1;fill:#d4d4d4;fill-opacity:1;stroke:#000000;stroke-width:1;stroke-linecap:round;stroke-linejoin:bevel;stroke-opacity:0.42745098" />
    <path
       style="opacity:0.2;fill:url(#linearGradient1895);fill-opacity:1;stroke:none;stroke-width:1;stroke-linecap:round;stroke-linejoin:bevel;stroke-opacity:0.42745098"
       d="m 76,-2 c -1.939,0 -3.5,1.56100002 -3.5,3.5 V 4 c 0,1.939 1.561,3.5 3.5,3.5 h 6.5 C 84.439,7.5 86,5.939 86,4 V 1.5 C 86,-0.43899998 84.439,-2 82.5,-2 Z m 0.25,2.5 h 6 c 0.6925,0 1.25,0.5575 1.25,1.25 v 2 C 83.5,4.4425 82.9425,5 82.25,5 h -6 C 75.5575,5 75,4.4425 75,3.75 v -2 C 75,1.0575 75.5575,0.5 76.25,0.5 Z"
       id="path1887" />
    <path
       id="path1897"
       d="M 94.5,-2 C 92.561,-2 91,-0.43899998 91,1.5 V 4 c 0,1.939 1.561,3.5 3.5,3.5 h 6.5 c 1.939,0 3.5,-1.561 3.5,-3.5 V 1.5 c 0,-1.93899998 -1.561,-3.5 -3.5,-3.5 z m 0.25,2.5 h 6 c 0.6925,0 1.25,0.5575 1.25,1.25 v 2 C 102,4.4425 101.4425,5 100.75,5 h -6 C 94.0575,5 93.5,4.4425 93.5,3.75 v -2 c 0,-0.6925 0.5575,-1.25 1.25,-1.25 z"
       style="opacity:0.2;fill:url(#linearGradient1899);fill-opacity:1;stroke:none;stroke-width:1;stroke-linecap:round;stroke-linejoin:bevel;stroke-opacity:0.42745098" />
    <path
       id="rect1915"
       d="m 94.5,-1 h 6.5 c 1.385,0 2.5,1.115 2.5,2.5 V 4"
       style="opacity:0.4;fill:none;fill-opacity:1;stroke:#ffffff;stroke-width:1;stroke-linecap:round;stroke-linejoin:round;stroke-opacity:1" />
    <path
       id="rect1918"
       d="m 100.75,6 h -6 C 93.5035,6 92.5,4.9965 92.5,3.75"
       style="opacity:0.4;fill:none;fill-opacity:1;stroke:#ffffff;stroke-width:1;stroke-linecap:round;stroke-linejoin:bevel;stroke-opacity:1" />
    <path
       style="opacity:0.4;fill:none;fill-opacity:1;stroke:#ffffff;stroke-width:1;stroke-linecap:round;stroke-linejoin:round;stroke-opacity:1"
       d="M 82.5,6.5 H 76 C 74.615,6.5 73.5,5.385 73.5,4 V 1.5"
       id="path1921" />
    <path
       style="opacity:0.4;fill:none;fill-opacity:1;stroke:#ffffff;stroke-width:1;stroke-linecap:round;stroke-linejoin:bevel;stroke-opacity:1"
       d="m 76.25,-0.5 h 6 c 1.2465,0 2.25,1.0035 2.25,2.25"
       id="path1923" />
    <rect
       ry="1.5"
       rx="1.5"
       y="1.4999995"
       x="82"
       height="2.5"
       width="13"
       id="rect1879"
       style="opacity:1;fill:#d4d4d4;fill-opacity:1;stroke:#000000;stroke-width:1;stroke-linecap:round;stroke-linejoin:bevel;stroke-opacity:0.42745098" />
    <rect
       style="opacity:0.2;fill:url(#linearGradient1909);fill-opacity:1;stroke:none;stroke-width:1;stroke-linecap:round;stroke-linejoin:bevel;stroke-opacity:0.42745098"
       id="rect1901"
       width="13"
       height="2.5"
       x="82"
       y="1.4999995"
       rx="1.5"
       ry="1.5" />
    <path
       id="rect1925"
       d="M 83,2.75 C 83,2.6115 83.669,2.5 84.5,2.5 h 8 c 0.831,0 1.5,0.1115 1.5,0.25"
       style="opacity:0.4;fill:none;fill-opacity:1;stroke:#ffffff;stroke-width:1;stroke-linecap:round;stroke-linejoin:bevel;stroke-opacity:1" />
  </g>
  <g
     id="g4374"
     transform="translate(0,0.006868)">
    <path
       d="m 21.5,21.5 v -4.021022 h 5 V 21.5 h 4.007287 v 5 H 26.5 v 4.007286 h -5 V 26.5 h -4.007286 v -5 z"
       id="path2262"
       style="color:#000000;display:inline;overflow:visible;visibility:visible;fill:url(#radialGradient3343-7);fill-opacity:1;fill-rule:nonzero;stroke:none;stroke-width:0.98542744;stroke-linecap:round;stroke-linejoin:round;stroke-miterlimit:4;stroke-dasharray:none;stroke-dashoffset:0;stroke-opacity:1;marker:none;enable-background:accumulate" />
    <path
       style="display:inline;opacity:0.5;fill:none;stroke:url(#linearGradient3030-2);stroke-width:1;stroke-linecap:butt;stroke-linejoin:miter;stroke-miterlimit:4;stroke-dasharray:none;stroke-opacity:1"
       id="path2272-4"
       d="M 22.5,23.003028 V 18.5 h 3 v 4.496972 M 25.5,25 v 4.5 h -3 V 25" />
    <path
       style="display:inline;opacity:0.5;fill:none;stroke:url(#linearGradient3030-1-1);stroke-width:0.99999994;stroke-linecap:butt;stroke-linejoin:miter;stroke-miterlimit:4;stroke-dasharray:none;stroke-opacity:1"
       id="path2272-2"
       d="m 26,22.512298 3.499869,-0.01086 v 2.987703 L 26,25.500001 m -4,0 -3.500131,-0.01086 V 22.501438 L 22,22.512298" />
    <path
       d="m 21.5,21.5 v -4.021022 h 5 V 21.5 h 4.007287 v 5 H 26.5 v 4.007286 h -5 V 26.5 h -4.007286 v -5 z"
       id="path2262-9"
       style="color:#000000;clip-rule:nonzero;display:inline;overflow:visible;visibility:visible;opacity:0.5;isolation:auto;mix-blend-mode:normal;color-interpolation:sRGB;color-interpolation-filters:linearRGB;solid-color:#000000;solid-opacity:1;fill:none;fill-opacity:1;fill-rule:nonzero;stroke:#0f5a00;stroke-width:1;stroke-linecap:round;stroke-linejoin:round;stroke-miterlimit:4;stroke-dasharray:none;stroke-dashoffset:0;stroke-opacity:1;marker:none;color-rendering:auto;image-rendering:auto;shape-rendering:auto;text-rendering:auto;enable-background:accumulate" />
  </g>
</svg>
